X:1
T:Kochi, LMD
T:Kochi, LMD
T:F. M. Ferrell, 1912
T:Public Domain Courtesy of the Cyber Hymnal™
C:F. M. Ferrell, 1912
Z:Public Domain
Z:Courtesy of the Cyber Hymnal™
%%score ( 1 2 ) 3
L:1/8
Q:1/4=98
M:4/4
K:Db
V:1 treble 
V:2 treble 
V:3 bass 
V:1
 D2 | [DF]3 [DE] [DF][EG] [FA]>[GB] | [FA]6 [Fd]2 | [Gc]3 [GB] [FA][GB] [FA]>[EG] | [DF]6 D2 | %5
 [DF]3 [D=E] [DF][_EG] [FA]>[GB] | [FA]6 A2 | [Ge]3 [Gf] [Ge][Gd] [Gd]>[GB] | %8
 (A2 [=GB]2 A2) [FA]2 | [Af]3 [Ge] [Fd][Ac] [GB]>[Gd] | [FA]6 [Fd]2 | %11
 [Gc]3 [GB] [FA][GB] [FA]>[EG] | [DF]6 [FA]2 | [Af]3 [Ge] [Fd][Ac] [GB]>[Gd] | [FA]6 [Fd]2 | %15
 [Gc]3 [GB] [FA][DF] [EG]>[CE] | D6 |] %17
V:2
 D2 | x8 | x8 | x8 | x6 D2 | x8 | x6 A2 | x8 | A2 A2 x4 | x8 | x8 | x8 | x8 | x8 | x8 | x8 | D6 |] %17
V:3
 [D,F,]2 | [D,A,]3 [D,=G,] [D,A,]2 [D,D]2 | ([D,D]2 [A,,D]2 [D,D]2) [D,A,]2 | %3
 [A,,A,]3 [A,,A,] [A,,A,]2 [A,,A,]2 | ([D,A,]2 [D,A,]2 [D,A,]2) [D,F,]2 | %5
 [D,A,]3 [D,=G,] [D,A,]2 [D,D]2 | ([D,D]2 [A,,D]2 [D,D]2) [F,D]2 | [E,B,]3 [E,B,] [E,B,]2 [E,E]2 | %8
 ([A,,A,C]2 [E,D]2 [A,,A,C]2) [D,D]2 | [D,D]3 [D,D] [D,A,]2 [D,D]2 | %10
 ([D,D]2 [A,,D]2 [D,D]2) [D,A,]2 | [A,,A,]3 [A,,A,] [A,,A,]2 [A,,A,]2 | %12
 ([D,A,]2 [D,A,]2 [D,A,]2) [D,D]2 | [D,D]3 [D,D] [D,A,]2 [D,D]2 | ([D,D]2 [A,,D]2 [D,D]2) [D,A,]2 | %15
 [A,,A,]3 [A,,A,] [A,,A,][A,,A,] [A,,A,]>[A,,G,] | [D,F,]6 |] %17

